assets/flags-color/Rs.svg

<svg xmlns="http://www.w3.org/2000/svg" viewBox="0 0 512 512"><path fill="#f5f5f5" d="M0 341.39h512V512H0z"/><path fill="#ff4b55" d="M0 0h512v170.61H0z"/><path fill="#41479b" d="M0 170.61h512v170.78H0z"/><path fill="#ffe15a" d="M222.434 170.574h-97.075l-4.045-24.268h105.165z"/><path fill="#ffd350" d="M124.347 164.507l1.012 6.067h97.075l1.012-6.067z"/><g fill="#ffe15a"><path d="M171.87 89.68h4.045v16.179h-4.045z"/><path d="M167.83 93.72h12.134v4.045H167.83zM222.75 154.395a4.045 4.045 0 01-3.802-5.423l8.568-23.645a4.286 4.286 0 00-.275-3.543c-.318-.573-1.063-1.58-2.481-1.884-10.446-2.22-30.694-5.953-48.911-5.953h-3.907c-18.218 0-38.465 3.733-48.915 5.957-1.414.3-2.159 1.307-2.477 1.88a4.286 4.286 0 00-.273 3.543l8.566 23.645a4.045 4.045 0 01-2.423 5.182c-2.097.751-4.422-.328-5.18-2.425l-8.568-23.645a12.369 12.369 0 01.804-10.223c1.675-3.022 4.541-5.163 7.865-5.87 10.762-2.291 31.644-6.134 50.602-6.134h3.907c18.958 0 39.84 3.843 50.598 6.13 3.328.711 6.194 2.852 7.868 5.874a12.38 12.38 0 01.806 10.223l-8.57 23.645a4.045 4.045 0 01-3.802 2.666z"/><path d="M173.912 150.856a4.044 4.044 0 01-4.045-4.045v-32.864c0-2.236 1.811-4.045 4.045-4.045s4.045 1.809 4.045 4.045v32.864a4.044 4.044 0 01-4.045 4.045z"/><path d="M201.873 154.395a4.043 4.043 0 01-3.964-4.866l4.906-23.645c.638-3.081-.361-5.779-.928-6.253-5.609-2.058-16.861-5.684-26.872-5.684h-2.238c-10.011 0-21.263 3.626-27.079 5.791-.359.367-1.359 3.065-.721 6.146l4.906 23.645a4.044 4.044 0 01-3.138 4.783c-2.19.423-4.331-.952-4.782-3.14l-4.906-23.645c-1.223-5.893.654-13.442 5.816-15.37 7.732-2.876 19.191-6.3 29.904-6.3h2.238c10.712 0 22.172 3.425 29.9 6.296 5.167 1.932 7.043 9.48 5.82 15.374l-4.906 23.645a4.043 4.043 0 01-3.956 3.223z"/></g><path fill="#ffd350" d="M122.325 152.373h103.143l1.011-6.067H121.314z"/><path fill="#ff4b55" d="M97.045 170.574A4.045 4.045 0 0093 174.619v141.257c0 44.85 36.218 81.208 80.897 81.208s80.897-36.358 80.897-81.208V174.619a4.045 4.045 0 00-4.045-4.045H97.045z"/><path fill="#f5f5f5" d="M181.986 304.054l8.09-20.224-16.179 4.045-16.179-4.045 8.09 20.224-20.224 68.762s12.134 8.09 28.314 8.09 28.314-8.09 28.314-8.09l-20.226-68.762z"/><path fill="#ffe15a" d="M144.601 320.356l-7.136 1.783 15.698-28.257-7.071-3.926-19.067 34.322h-17.846v8.09h8.692l-11.218 8.974 5.052 6.32 9.53-7.623-3.759 11.273 7.675 2.56 7.388-22.164 14.025-3.508z"/><path fill="#f5f5f5" d="M145.583 211.023l-18.465-9.232a8.09 8.09 0 01-4.23-9.198l1.044-4.177c.725-2.899-1.468-5.707-4.456-5.707a4.59 4.59 0 00-3.586 1.724 67.54 67.54 0 00-14.8 42.193v85.518s16.891-3.378 32.149-25.57c2.802-4.075 7.413-6.486 12.328-6.739l-8.073 24.219 16.179 4.045 14.157-16.847-22.247-80.229z"/><path fill="#ffe15a" d="M203.192 320.356l7.136 1.783-15.698-28.257 7.071-3.926 19.068 34.322h17.845v8.09h-8.692l11.218 8.974-5.052 6.32-9.53-7.623 3.759 11.273-7.675 2.56-7.388-22.164-14.025-3.508z"/><path fill="#f5f5f5" d="M202.21 211.023l18.465-9.232a8.09 8.09 0 004.23-9.198l-1.044-4.177c-.725-2.899 1.468-5.707 4.456-5.707a4.59 4.59 0 013.586 1.724 67.54 67.54 0 0114.8 42.193v85.518s-16.891-3.378-32.149-25.57c-2.802-4.075-7.413-6.486-12.328-6.739l8.073 24.219-16.179 4.045-14.157-16.847 22.247-80.229z"/><g fill="#ffe15a"><path d="M149.628 182.709h-20.225l6.068 8.09 14.157 4.044-8.09 4.045h12.134zM198.166 182.709h20.224l-6.068 8.09-14.156 4.044 8.089 4.045h-12.134z"/></g><path fill="#f5f5f5" d="M201.013 179.538l-19.027 3.171-8.09 16.179-8.09-16.179-19.027-3.171c-2.182-.364-3.854 1.901-2.865 3.879l9.758 19.516-8.09 8.09h56.628l-8.09-8.09 9.758-19.516c.989-1.978-.683-4.243-2.865-3.879z"/><circle cx="173.9" cy="148.07" r="6.067" fill="#ffbe50"/><ellipse cx="173.81" cy="162.57" fill="#41479b" rx="4.795" ry="3.371"/><ellipse cx="149.88" cy="162.57" fill="#ff4b55" rx="4.795" ry="3.371"/><g fill="#41479b"><ellipse cx="125.95" cy="162.57" rx="4.795" ry="3.371"/><ellipse cx="221.68" cy="162.57" rx="4.795" ry="3.371"/></g><ellipse cx="197.74" cy="162.57" fill="#ff4b55" rx="4.795" ry="3.371"/><g fill="#ffbe50"><circle cx="202" cy="148.07" r="6.067"/><circle cx="224.19" cy="148.07" r="6.067"/><circle cx="145.81" cy="148.07" r="6.067"/><circle cx="123.62" cy="148.07" r="6.067"/></g><path fill="#41479b" d="M180.864 113.947c.695-1.194 1.122-2.564 1.122-4.045a8.09 8.09 0 10-16.18 0c0 1.481.427 2.851 1.122 4.045h13.936z"/><path fill="#ff4b55" d="M173.897 293.942c-16.728 0-30.336-13.608-30.336-30.336V209h60.672v54.605c0 16.729-13.608 30.337-30.336 30.337z"/><path fill="#a54b50" d="M202.21 211.023v52.583c0 15.637-12.676 28.314-28.314 28.314s-28.314-12.677-28.314-28.314v-52.583h56.628m4.045-4.045h-64.718v56.628c0 17.843 14.516 32.359 32.359 32.359s32.359-14.516 32.359-32.359v-56.628z"/><g fill="#f5f5f5"><path d="M167.829 291.251c1.956.428 3.983.668 6.067.668 2.085 0 4.111-.24 6.067-.668v-80.229h-12.134v80.229z"/><path d="M145.58 244.39h56.628v12.134H145.58z"/></g></svg>

<svg xmlns="http://www.w3.org/2000/svg" x="0" y="0" enable-background="new 0 0 512 512" version="1.1" viewBox="0 0 512 512" xml:space="preserve"><path fill="#F5F5F5" d="M0 341.39H512V512H0z"/><path fill="#FF4B55" d="M0 0H512V170.61H0z"/><path fill="#41479B" d="M0 170.61H512V341.39H0z"/><path fill="#FFE15A" d="M222.434 170.574 125.359 170.574 121.314 146.306 226.479 146.306z"/><path fill="#FFD350" d="M124.347 164.507 125.359 170.574 222.434 170.574 223.446 164.507z"/><g fill="#FFE15A"><path d="M171.87 89.68H175.915V105.85900000000001H171.87z"/><path d="M167.83 93.72H179.964V97.765H167.83z"/><path d="M222.75 154.395a4.045 4.045 0 0 1-3.802-5.423l8.568-23.645a4.286 4.286 0 0 0-.275-3.543c-.318-.573-1.063-1.58-2.481-1.884-10.446-2.22-30.694-5.953-48.911-5.953h-3.907c-18.218 0-38.465 3.733-48.915 5.957-1.414.3-2.159 1.307-2.477 1.88a4.286 4.286 0 0 0-.273 3.543l8.566 23.645a4.045 4.045 0 0 1-2.423 5.182c-2.097.751-4.422-.328-5.18-2.425l-8.568-23.645a12.369 12.369 0 0 1 .804-10.223c1.675-3.022 4.541-5.163 7.865-5.87 10.762-2.291 31.644-6.134 50.602-6.134h3.907c18.958 0 39.84 3.843 50.598 6.13 3.328.711 6.194 2.852 7.868 5.874a12.38 12.38 0 0 1 .806 10.223l-8.57 23.645a4.045 4.045 0 0 1-3.802 2.666z"/><path d="M173.912 150.856a4.044 4.044 0 0 1-4.045-4.045v-32.864c0-2.236 1.811-4.045 4.045-4.045s4.045 1.809 4.045 4.045v32.864a4.044 4.044 0 0 1-4.045 4.045z"/><path d="M201.873 154.395a4.043 4.043 0 0 1-3.964-4.866l4.906-23.645c.638-3.081-.361-5.779-.928-6.253-5.609-2.058-16.861-5.684-26.872-5.684h-2.238c-10.011 0-21.263 3.626-27.079 5.791-.359.367-1.359 3.065-.721 6.146l4.906 23.645a4.044 4.044 0 0 1-3.138 4.783c-2.19.423-4.331-.952-4.782-3.14l-4.906-23.645c-1.223-5.893.654-13.442 5.816-15.37 7.732-2.876 19.191-6.3 29.904-6.3h2.238c10.712 0 22.172 3.425 29.9 6.296 5.167 1.932 7.043 9.48 5.82 15.374l-4.906 23.645a4.043 4.043 0 0 1-3.956 3.223z"/></g><path fill="#FFD350" d="M122.325 152.373 225.468 152.373 226.479 146.306 121.314 146.306z"/><path fill="#FF4B55" d="M97.045 170.574A4.045 4.045 0 0 0 93 174.619v141.257c0 44.85 36.218 81.208 80.897 81.208s80.897-36.358 80.897-81.208V174.619a4.045 4.045 0 0 0-4.045-4.045H97.045z"/><path fill="#F5F5F5" d="m181.986 304.054 8.09-20.224-16.179 4.045-16.179-4.045 8.09 20.224-20.224 68.762s12.134 8.09 28.314 8.09 28.314-8.09 28.314-8.09l-20.226-68.762z"/><path fill="#FFE15A" d="M144.601 320.356 137.465 322.139 153.163 293.882 146.092 289.956 127.025 324.278 109.179 324.278 109.179 332.368 117.871 332.368 106.653 341.342 111.705 347.662 121.235 340.039 117.476 351.312 125.151 353.872 132.539 331.708 146.564 328.2z"/><path fill="#F5F5F5" d="m145.583 211.023-18.465-9.232a8.09 8.09 0 0 1-4.23-9.198l1.044-4.177c.725-2.899-1.468-5.707-4.456-5.707a4.59 4.59 0 0 0-3.586 1.724 67.54 67.54 0 0 0-14.8 42.193v85.518s16.891-3.378 32.149-25.57c2.802-4.075 7.413-6.486 12.328-6.739l-8.073 24.219 16.179 4.045 14.157-16.847-22.247-80.229z"/><path fill="#FFE15A" d="M203.192 320.356 210.328 322.139 194.63 293.882 201.701 289.956 220.769 324.278 238.614 324.278 238.614 332.368 229.922 332.368 241.14 341.342 236.088 347.662 226.558 340.039 230.317 351.312 222.642 353.872 215.254 331.708 201.229 328.2z"/><path fill="#F5F5F5" d="m202.21 211.023 18.465-9.232a8.09 8.09 0 0 0 4.23-9.198l-1.044-4.177c-.725-2.899 1.468-5.707 4.456-5.707a4.59 4.59 0 0 1 3.586 1.724 67.54 67.54 0 0 1 14.8 42.193v85.518s-16.891-3.378-32.149-25.57c-2.802-4.075-7.413-6.486-12.328-6.739l8.073 24.219-16.179 4.045-14.157-16.847 22.247-80.229z"/><g fill="#FFE15A"><path d="M149.628 182.709 129.403 182.709 135.471 190.799 149.628 194.843 141.538 198.888 153.672 198.888z"/><path d="M198.166 182.709 218.39 182.709 212.322 190.799 198.166 194.843 206.255 198.888 194.121 198.888z"/></g><path fill="#F5F5F5" d="m201.013 179.538-19.027 3.171-8.09 16.179-8.09-16.179-19.027-3.171c-2.182-.364-3.854 1.901-2.865 3.879l9.758 19.516-8.09 8.09h56.628l-8.09-8.09 9.758-19.516c.989-1.978-.683-4.243-2.865-3.879z"/><circle cx="173.9" cy="148.07" r="6.067" fill="#FFBE50"/><ellipse cx="173.81" cy="162.57" fill="#41479B" rx="4.795" ry="3.371"/><ellipse cx="149.88" cy="162.57" fill="#FF4B55" rx="4.795" ry="3.371"/><g fill="#41479B"><ellipse cx="125.95" cy="162.57" rx="4.795" ry="3.371"/><ellipse cx="221.68" cy="162.57" rx="4.795" ry="3.371"/></g><ellipse cx="197.74" cy="162.57" fill="#FF4B55" rx="4.795" ry="3.371"/><g fill="#FFBE50"><circle cx="202" cy="148.07" r="6.067"/><circle cx="224.19" cy="148.07" r="6.067"/><circle cx="145.81" cy="148.07" r="6.067"/><circle cx="123.62" cy="148.07" r="6.067"/></g><path fill="#41479B" d="M180.864 113.947c.695-1.194 1.122-2.564 1.122-4.045a8.09 8.09 0 1 0-16.18 0c0 1.481.427 2.851 1.122 4.045h13.936z"/><path fill="#FF4B55" d="M173.897 293.942c-16.728 0-30.336-13.608-30.336-30.336V209h60.672v54.605c0 16.729-13.608 30.337-30.336 30.337z"/><path fill="#A54B50" d="M202.21 211.023v52.583c0 15.637-12.676 28.314-28.314 28.314s-28.314-12.677-28.314-28.314v-52.583h56.628m4.045-4.045h-64.718v56.628c0 17.843 14.516 32.359 32.359 32.359s32.359-14.516 32.359-32.359v-56.628z"/><g fill="#F5F5F5"><path d="M167.829 291.251c1.956.428 3.983.668 6.067.668 2.085 0 4.111-.24 6.067-.668v-80.229h-12.134v80.229z"/><path d="M145.58 244.39H202.20800000000003V256.524H145.58z"/></g></svg>
